7-animation/3-js-animation/quad.svg

<?xml version="1.0" encoding="UTF-8"?>
<svg width="234px" height="240px" viewBox="0 0 234 240" version="1.1" xmlns="http://www.w3.org/2000/svg" xmlns:xlink="http://www.w3.org/1999/xlink">
    <!-- Generator: sketchtool 55.2 (78181) - https://sketchapp.com -->
    <title>quad.svg</title>
    <desc>Created with sketchtool.</desc>
    <g id="animation" stroke="none" stroke-width="1" fill="none" fill-rule="evenodd">
        <g id="quad.svg">
            <path id="Line" d="M35,36.1600037 L35,210.5 L33,210.5 L33,36.1600037 L27,36.1600037 L34,22.1600037 L41,36.1600037 L35,36.1600037 Z" fill="#E8C48E" fill-rule="nonzero"></path>
            <path id="Line" d="M194.509995,195 L23.5,195 L23.5,193 L194.509995,193 L194.509995,187 L208.509995,194 L194.509995,201 L194.509995,195 Z" fill="#E8C48E" fill-rule="nonzero"></path>
            <path d="M35.3289777,193.635841 C35.3289777,193.635841 113.802694,208.841146 207.337233,22.0938619" id="Path-747" stroke="#EE6B47" stroke-width="3"></path>
            <text id="0" font-family="PTMono-Bold, PT Mono" font-size="14" font-weight="bold" fill="#8A704D">
                <tspan x="17" y="212">0</tspan>
            </text>
            <text id="1" font-family="PTMono-Bold, PT Mono" font-size="14" font-weight="bold" fill="#8A704D">
                <tspan x="17" y="36">1</tspan>
            </text>
            <text id="-2" font-family="PTMono-Bold, PT Mono" font-size="14" font-weight="bold" fill="#8A704D">
                <tspan x="200" y="212">1</tspan>
            </text>
        </g>
    </g>
</svg>

<svg xmlns="http://www.w3.org/2000/svg" width="234" height="240" viewBox="0 0 234 240"><defs><style>@import url(https://fonts.googleapis.com/css?family=Open+Sans:bold,italic,bolditalic%7CPT+Mono);@font-face{font-family:&apos;PT Mono&apos;;font-weight:700;font-style:normal;src:local(&apos;PT MonoBold&apos;),url(/font/PTMonoBold.woff2) format(&apos;woff2&apos;),url(/font/PTMonoBold.woff) format(&apos;woff&apos;),url(/font/PTMonoBold.ttf) format(&apos;truetype&apos;)}</style></defs><g id="animation" fill="none" fill-rule="evenodd" stroke="none" stroke-width="1"><g id="quad.svg"><path id="Line" fill="#DBAF88" fill-rule="nonzero" d="M34 22.16l7 14h-6V210.5h-2V36.16h-6l7-14z"/><path id="Line" fill="#DBAF88" fill-rule="nonzero" d="M194.51 187l14 7-14 7-.001-6H23.5v-2h171.009l.001-6z"/><path id="Path-747" stroke="#C06334" stroke-width="3" d="M35.329 193.636s78.474 15.205 172.008-171.542"/><text id="0" fill="#AF6E24" font-family="PTMono-Bold, PT Mono" font-size="14" font-weight="bold"><tspan x="17" y="212">0</tspan></text><text id="1" fill="#AF6E24" font-family="PTMono-Bold, PT Mono" font-size="14" font-weight="bold"><tspan x="17" y="36">1</tspan></text><text id="-2" fill="#AF6E24" font-family="PTMono-Bold, PT Mono" font-size="14" font-weight="bold"><tspan x="200" y="212">1</tspan></text></g></g></svg>
